X: 10991
Q: "Very Slow"
M: C
L: 1/8
K: Am
e |\
c<AA>B cAAe | c>A G>E G2 G>e |\
c<AA>B cAA>B | c>dec A3B |
c>de>d e>dc>d | e>d cE G2G c/B/ |\
a/b/ |\
{ab}c'aab c'aae' | c'a ge g2 ga/b/ | c'aab c'aa>b | c'>d'e'>c' a2 a>b |
c'>d' e'>d' e'>d' c'd' | e'>d' d'/c'/b/a/ {a}g2 gc'/b/ | ~a>b ~c'>d' e'c'd'e' | c'>a b>^g {g}Ta2 a>b |
c'a a>b c'aae' | c'>a (a/g/f/e/) g2 ga/b/ | c'aa>b c'a ae/^g/ | a>e=gB A2 AB |
c>deg e>dcd | e>d cE G2 Gc/B/ | ~A>B ~c>d e>dca | g>e {e}d>{c}B A2 A |]


